; G-Code generated by Simplify3D(R) Version 4.1.0
; Nov 22, 2021 at 1:52:03 PM
; Settings Summary
;   processName,Process1
;   applyToModels,Prisma Ji-Su Pattern A 9,95mm Breite, 3mm Dicke, 8mm D?se
;   profileName,ATAT 8mm D?se Prisma Christoph (modified)
;   profileVersion,2020-09-09 12:21:05
;   baseProfile,Default
;   printMaterial,M?rtel
;   printQuality,Medium
;   printExtruders,
;   extruderName,Extruder 1
;   extruderToolheadNumber,0
;   extruderDiameter,8
;   extruderAutoWidth,0
;   extruderWidth,9.95
;   extrusionMultiplier,1.05
;   extruderUseRetract,1
;   extruderRetractionDistance,0
;   extruderExtraRestartDistance,0
;   extruderRetractionZLift,1.5
;   extruderRetractionSpeed,200
;   extruderUseCoasting,0
;   extruderCoastingDistance,0.2
;   extruderUseWipe,0
;   extruderWipeDistance,5
;   primaryExtruder,0
;   layerHeight,3
;   topSolidLayers,0
;   bottomSolidLayers,0
;   perimeterOutlines,1
;   printPerimetersInsideOut,1
;   startPointOption,2
;   startPointOriginX,0
;   startPointOriginY,0
;   sequentialIslands,0
;   spiralVaseMode,0
;   firstLayerHeightPercentage,100
;   firstLayerWidthPercentage,100
;   firstLayerUnderspeed,1
;   useRaft,0
;   raftExtruder,0
;   raftTopLayers,3
;   raftBaseLayers,2
;   raftOffset,3
;   raftSeparationDistance,0.14
;   raftTopInfill,100
;   aboveRaftSpeedMultiplier,0.3
;   useSkirt,0
;   skirtExtruder,999
;   skirtLayers,1
;   skirtOutlines,2
;   skirtOffset,4
;   usePrimePillar,0
;   primePillarExtruder,999
;   primePillarWidth,12
;   primePillarLocation,7
;   primePillarSpeedMultiplier,1
;   useOozeShield,0
;   oozeShieldExtruder,999
;   oozeShieldOffset,2
;   oozeShieldOutlines,1
;   oozeShieldSidewallShape,1
;   oozeShieldSidewallAngle,30
;   oozeShieldSpeedMultiplier,1
;   infillExtruder,0
;   internalInfillPattern,Rectilinear
;   externalInfillPattern,Rectilinear
;   infillPercentage,0
;   outlineOverlapPercentage,15
;   infillExtrusionWidthPercentage,100
;   minInfillLength,5
;   infillLayerInterval,1
;   internalInfillAngles,45,-45
;   overlapInternalInfillAngles,0
;   externalInfillAngles,45,-45
;   generateSupport,0
;   supportExtruder,0
;   supportInfillPercentage,10
;   supportExtraInflation,0
;   supportBaseLayers,0
;   denseSupportExtruder,0
;   denseSupportLayers,0
;   denseSupportInfillPercentage,70
;   supportLayerInterval,1
;   supportHorizontalPartOffset,0.3
;   supportUpperSeparationLayers,1
;   supportLowerSeparationLayers,1
;   supportType,0
;   supportGridSpacing,4
;   maxOverhangAngle,45
;   supportAngles,0
;   temperatureName,Primary Extruder
;   temperatureNumber,0
;   temperatureSetpointCount,1
;   temperatureSetpointLayers,1
;   temperatureSetpointTemperatures,0
;   temperatureStabilizeAtStartup,0
;   temperatureHeatedBed,0
;   fanLayers,1,2
;   fanSpeeds,0,100
;   blipFanToFullPower,0
;   adjustSpeedForCooling,1
;   minSpeedLayerTime,15
;   minCoolingSpeedSlowdown,20
;   increaseFanForCooling,0
;   minFanLayerTime,45
;   maxCoolingFanSpeed,100
;   increaseFanForBridging,0
;   bridgingFanSpeed,100
;   use5D,1
;   relativeEdistances,0
;   allowEaxisZeroing,1
;   independentExtruderAxes,0
;   includeM10123,0
;   stickySupport,1
;   applyToolheadOffsets,0
;   gcodeXoffset,0
;   gcodeYoffset,0
;   gcodeZoffset,0
;   overrideMachineDefinition,1
;   machineTypeOverride,0
;   strokeXoverride,1300
;   strokeYoverride,1300
;   strokeZoverride,1000
;   originOffsetXoverride,0
;   originOffsetYoverride,0
;   originOffsetZoverride,0
;   homeXdirOverride,-1
;   homeYdirOverride,-1
;   homeZdirOverride,1
;   flipXoverride,1
;   flipYoverride,-1
;   flipZoverride,1
;   toolheadOffsets,0,0|0,0|0,0|0,0|0,0|0,0
;   overrideFirmwareConfiguration,1
;   firmwareTypeOverride,RepRap (Marlin/Repetier/Sprinter)
;   GPXconfigOverride,r2
;   baudRateOverride,115200
;   overridePrinterModels,0
;   printerModelsOverride
;   startingGcode,
;   layerChangeGcode,
;   retractionGcode,
;   toolChangeGcode,
;   endingGcode,M104 S0 ; turn off extruder,M140 S0 ; turn off bed,M84 ; disable motors
;   exportFileFormat,gcode
;   celebration,0
;   celebrationSong,Random Song
;   postProcessing,
;   defaultSpeed,1800
;   outlineUnderspeed,1
;   solidInfillUnderspeed,1
;   supportUnderspeed,1
;   rapidXYspeed,3000
;   rapidZspeed,1200
;   minBridgingArea,50
;   bridgingExtraInflation,0
;   bridgingExtrusionMultiplier,1
;   bridgingSpeedMultiplier,1
;   useFixedBridgingAngle,0
;   fixedBridgingAngle,0
;   applyBridgingToPerimeters,0
;   filamentDiameters,99.9|1|1|1|1|1
;   filamentPricesPerKg,100|46|46|46|46|46
;   filamentDensities,2.3|1.25|1.25|1.25|1.25|1.25
;   useMinPrintHeight,0
;   minPrintHeight,0
;   useMaxPrintHeight,0
;   maxPrintHeight,50
;   useDiaphragm,0
;   diaphragmLayerInterval,20
;   robustSlicing,1
;   mergeAllIntoSolid,0
;   onlyRetractWhenCrossingOutline,0
;   retractBetweenLayers,0
;   useRetractionMinTravel,0
;   retractionMinTravel,3
;   retractWhileWiping,0
;   onlyWipeOutlines,0
;   avoidCrossingOutline,1
;   maxMovementDetourFactor,200
;   toolChangeRetractionDistance,12
;   toolChangeExtraRestartDistance,-0.5
;   toolChangeRetractionSpeed,600
;   externalThinWallType,1
;   internalThinWallType,1
;   thinWallAllowedOverlapPercentage,10
;   singleExtrusionMinLength,0.1
;   singleExtrusionMinPrintingWidthPercentage,25
;   singleExtrusionMaxPrintingWidthPercentage,200
;   singleExtrusionEndpointExtension,0.2
;   horizontalSizeCompensation,0
G90
M82
M106 S0
M104 S0 T0
; process Process1
; layer 1, Z = 3.000
T0
; feature external single extrusion
; tool H3.000 W8.844
G1 Z3.000 F1200
G1 X29.943 Y148.839 F3000
G92 E0.0000
; tool H3.000 W8.839
G1 X29.986 Y149.097 E0.0009 F1800
; tool H3.000 W8.840
G1 X30.005 Y149.157 E0.0012
; tool H3.000 W8.844
G1 X30.031 Y149.213 E0.0014
; tool H3.000 W8.843
G1 X30.058 Y149.269 E0.0016
; tool H3.000 W8.840
G1 X30.094 Y149.320 E0.0018
; tool H3.000 W8.840
G1 X30.136 Y149.366 E0.0020
; tool H3.000 W8.839
G1 X30.181 Y149.408 E0.0023
; tool H3.000 W8.841
G1 X30.233 Y149.442 E0.0025
; tool H3.000 W8.843
G1 X30.288 Y149.472 E0.0027
; tool H3.000 W8.844
G1 X30.346 Y149.495 E0.0029
; tool H3.000 W8.842
G1 X30.405 Y149.515 E0.0031
; tool H3.000 W8.841
G1 X30.466 Y149.524 E0.0034
; tool H3.000 W8.840
G1 X30.528 Y149.530 E0.0036
; tool H3.000 W8.840
G1 X30.590 Y149.524 E0.0038
; tool H3.000 W8.841
G1 X30.651 Y149.515 E0.0040
; tool H3.000 W8.842
G1 X30.710 Y149.495 E0.0042
; tool H3.000 W8.844
G1 X30.768 Y149.473 E0.0045
; tool H3.000 W8.842
G1 X30.823 Y149.443 E0.0047
; tool H3.000 W8.838
G1 X30.875 Y149.409 E0.0049
; tool H3.000 W8.839
G1 X30.920 Y149.366 E0.0051
; tool H3.000 W8.843
G1 X30.961 Y149.319 E0.0054
; tool H3.000 W8.841
G1 X30.998 Y149.269 E0.0056
; tool H3.000 W8.841
G1 X31.026 Y149.214 E0.0058
; tool H3.000 W8.842
G1 X31.051 Y149.157 E0.0060
; tool H3.000 W8.840
G1 X31.070 Y149.097 E0.0062
; tool H3.000 W8.839
G1 X31.080 Y149.036 E0.0065
; tool H3.000 W9.396
G1 X30.529 Y148.834 E0.0087
; tool H3.000 W9.951
G1 X30.528 Y146.989 E0.0161
; tool H3.000 W9.950
G1 X30.528 Y25.909 E0.5002
; tool H3.000 W9.950
G1 X30.528 Y24.021 E0.5078
; tool H3.000 W9.950
G1 X30.513 Y23.533 E0.5097
; tool H3.000 W9.950
G1 X30.467 Y23.146 E0.5113
G1 X30.391 Y22.762 E0.5128
G1 X30.285 Y22.386 E0.5144
G1 X30.149 Y22.020 E0.5160
G1 X29.986 Y21.665 E0.5175
; tool H3.000 W9.950
G1 X29.795 Y21.324 E0.5191
G1 X29.578 Y21.000 E0.5206
; tool H3.000 W9.950
G1 X29.336 Y20.693 E0.5222
; tool H3.000 W9.950
G1 X29.071 Y20.406 E0.5238
G1 X28.784 Y20.141 E0.5253
; tool H3.000 W9.950
G1 X28.477 Y19.899 E0.5269
G1 X28.152 Y19.682 E0.5284
G1 X27.812 Y19.491 E0.5300
; tool H3.000 W9.950
G1 X27.457 Y19.327 E0.5316
G1 X27.090 Y19.192 E0.5331
G1 X26.714 Y19.086 E0.5347
; tool H3.000 W9.950
G1 X26.331 Y19.010 E0.5363
G1 X25.943 Y18.964 E0.5378
G1 X25.547 Y18.949 E0.5394
; tool H3.000 W9.950
G1 X25.107 Y18.965 E0.5412
G1 X24.725 Y19.010 E0.5427
; tool H3.000 W9.950
G1 X24.342 Y19.086 E0.5443
G1 X23.966 Y19.192 E0.5458
; tool H3.000 W9.950
G1 X23.599 Y19.328 E0.5474
; tool H3.000 W9.950
G1 X23.244 Y19.491 E0.5490
; tool H3.000 W9.950
G1 X22.904 Y19.682 E0.5505
G1 X22.579 Y19.899 E0.5521
; tool H3.000 W9.950
G1 X22.272 Y20.141 E0.5536
; tool H3.000 W9.950
G1 X21.985 Y20.406 E0.5552
G1 X21.720 Y20.693 E0.5568
; tool H3.000 W9.950
G1 X21.478 Y21.000 E0.5583
G1 X21.261 Y21.324 E0.5599
; tool H3.000 W9.950
G1 X21.070 Y21.665 E0.5614
; tool H3.000 W9.950
G1 X20.907 Y22.020 E0.5630
; tool H3.000 W9.950
G1 X20.771 Y22.386 E0.5646
G1 X20.665 Y22.762 E0.5661
; tool H3.000 W9.950
G1 X20.589 Y23.146 E0.5677
G1 X20.543 Y23.533 E0.5693
; tool H3.000 W9.950
G1 X20.528 Y24.021 E0.5712
; tool H3.000 W9.950
G1 X20.528 Y25.894 E0.5787
; tool H3.000 W9.950
G1 X20.528 Y152.003 E1.0830
; tool H3.000 W9.950
G1 X20.528 Y153.876 E1.0905
; tool H3.000 W9.950
G1 X20.543 Y154.364 E1.0924
; tool H3.000 W9.950
G1 X20.589 Y154.752 E1.0940
G1 X20.665 Y155.135 E1.0955
; tool H3.000 W9.950
G1 X20.771 Y155.511 E1.0971
G1 X20.907 Y155.878 E1.0987
; tool H3.000 W9.950
G1 X21.070 Y156.232 E1.1002
G1 X21.261 Y156.573 E1.1018
; tool H3.000 W9.950
G1 X21.478 Y156.898 E1.1033
; tool H3.000 W9.950
G1 X21.720 Y157.205 E1.1049
; tool H3.000 W9.950
G1 X21.985 Y157.492 E1.1065
; tool H3.000 W9.950
G1 X22.272 Y157.757 E1.1080
G1 X22.579 Y157.999 E1.1096
G1 X22.904 Y158.216 E1.1111
G1 X23.244 Y158.407 E1.1127
; tool H3.000 W9.950
G1 X23.599 Y158.570 E1.1143
; tool H3.000 W9.950
G1 X23.966 Y158.705 E1.1158
G1 X24.342 Y158.811 E1.1174
G1 X24.725 Y158.887 E1.1190
; tool H3.000 W9.950
G1 X25.113 Y158.933 E1.1205
; tool H3.000 W9.950
G1 X25.601 Y158.949 E1.1225
; tool H3.000 W9.950
G1 X27.178 Y158.949 E1.1288
; tool H3.000 W9.950
G1 X33.878 Y158.949 E1.1556
; tool H3.000 W9.950
G1 X35.455 Y158.949 E1.1619
; tool H3.000 W9.950
G1 X35.943 Y158.933 E1.1638
; tool H3.000 W9.950
G1 X36.331 Y158.887 E1.1654
; tool H3.000 W9.950
G1 X36.714 Y158.811 E1.1670
G1 X37.090 Y158.705 E1.1685
; tool H3.000 W9.950
G1 X37.457 Y158.570 E1.1701
G1 X37.811 Y158.407 E1.1716
; tool H3.000 W9.950
G1 X38.152 Y158.216 E1.1732
G1 X38.477 Y157.999 E1.1748
G1 X38.784 Y157.757 E1.1763
; tool H3.000 W9.950
G1 X39.071 Y157.492 E1.1779
; tool H3.000 W9.950
G1 X39.336 Y157.205 E1.1795
; tool H3.000 W9.950
G1 X39.578 Y156.898 E1.1810
; tool H3.000 W9.950
G1 X39.795 Y156.573 E1.1826
; tool H3.000 W9.950
G1 X39.986 Y156.232 E1.1841
G1 X40.149 Y155.878 E1.1857
; tool H3.000 W9.950
G1 X40.285 Y155.511 E1.1873
G1 X40.391 Y155.135 E1.1888
; tool H3.000 W9.950
G1 X40.467 Y154.752 E1.1904
G1 X40.513 Y154.364 E1.1919
; tool H3.000 W9.950
G1 X40.528 Y153.876 E1.1939
; tool H3.000 W9.950
G1 X40.528 Y152.001 E1.2014
; tool H3.000 W9.950
G1 X40.528 Y15.896 E1.7456
; tool H3.000 W9.950
G1 X40.528 Y14.021 E1.7531
; tool H3.000 W9.950
G1 X40.513 Y13.533 E1.7551
; tool H3.000 W9.950
G1 X40.467 Y13.146 E1.7566
G1 X40.391 Y12.762 E1.7582
G1 X40.285 Y12.386 E1.7598
G1 X40.149 Y12.020 E1.7613
G1 X39.986 Y11.665 E1.7629
; tool H3.000 W9.950
G1 X39.795 Y11.324 E1.7645
G1 X39.578 Y11.000 E1.7660
; tool H3.000 W9.950
G1 X39.336 Y10.693 E1.7676
; tool H3.000 W9.950
G1 X39.071 Y10.406 E1.7691
G1 X38.784 Y10.141 E1.7707
; tool H3.000 W9.950
G1 X38.477 Y9.899 E1.7723
G1 X38.152 Y9.682 E1.7738
G1 X37.812 Y9.491 E1.7754
; tool H3.000 W9.950
G1 X37.457 Y9.327 E1.7769
G1 X37.090 Y9.192 E1.7785
G1 X36.714 Y9.086 E1.7801
; tool H3.000 W9.950
G1 X36.331 Y9.010 E1.7816
G1 X35.943 Y8.964 E1.7832
; tool H3.000 W9.950
G1 X35.455 Y8.948 E1.7851
; tool H3.000 W9.950
G1 X33.730 Y8.949 E1.7920
; tool H3.000 W9.950
G1 X17.326 Y8.949 E1.8576
; tool H3.000 W9.950
G1 X15.601 Y8.948 E1.8645
; tool H3.000 W9.950
G1 X15.113 Y8.964 E1.8665
; tool H3.000 W9.950
G1 X14.725 Y9.010 E1.8681
G1 X14.342 Y9.086 E1.8696
; tool H3.000 W9.950
G1 X13.966 Y9.192 E1.8712
G1 X13.599 Y9.328 E1.8727
; tool H3.000 W9.950
G1 X13.244 Y9.491 E1.8743
; tool H3.000 W9.950
G1 X12.904 Y9.682 E1.8759
G1 X12.579 Y9.899 E1.8774
; tool H3.000 W9.950
G1 X12.272 Y10.141 E1.8790
; tool H3.000 W9.950
G1 X11.985 Y10.406 E1.8806
G1 X11.720 Y10.693 E1.8821
; tool H3.000 W9.950
G1 X11.478 Y11.000 E1.8837
G1 X11.261 Y11.324 E1.8852
; tool H3.000 W9.950
G1 X11.070 Y11.665 E1.8868
; tool H3.000 W9.950
G1 X10.907 Y12.020 E1.8884
G1 X10.771 Y12.386 E1.8899
; tool H3.000 W9.950
G1 X10.665 Y12.762 E1.8915
; tool H3.000 W9.950
G1 X10.589 Y13.146 E1.8930
G1 X10.543 Y13.533 E1.8946
; tool H3.000 W9.950
G1 X10.528 Y14.021 E1.8966
; tool H3.000 W9.950
G1 X10.528 Y15.910 E1.9041
; tool H3.000 W9.950
G1 X10.528 Y156.962 E2.4681
; tool H3.000 W9.951
G1 X10.527 Y158.809 E2.4755
; tool H3.000 W9.395
G1 X9.975 Y159.011 E2.4777
; tool H3.000 W8.838
G1 X9.986 Y159.072 E2.4780
; tool H3.000 W8.841
G1 X10.006 Y159.131 E2.4782
; tool H3.000 W8.844
G1 X10.030 Y159.189 E2.4784
; tool H3.000 W8.841
G1 X10.058 Y159.244 E2.4786
; tool H3.000 W8.838
G1 X10.093 Y159.295 E2.4788
; tool H3.000 W8.839
G1 X10.136 Y159.341 E2.4791
; tool H3.000 W8.842
G1 X10.183 Y159.381 E2.4793
; tool H3.000 W8.841
G1 X10.232 Y159.419 E2.4795
; tool H3.000 W8.840
G1 X10.287 Y159.448 E2.4797
; tool H3.000 W8.841
G1 X10.345 Y159.473 E2.4799
; tool H3.000 W8.837
G1 X10.404 Y159.493 E2.4802
; tool H3.000 W8.839
G1 X10.466 Y159.497 E2.4804
; tool H3.000 W8.844
G1 X10.727 Y159.519 E2.4813
; layer 2, Z = 6.000
M106 S255
; tool H3.000 W8.836
G1 Z6.000 F1200
G1 X10.613 Y158.414 F3000
G92 E0.0000
; tool H3.000 W8.837
G1 X10.354 Y158.456 E0.0009 F1800
; tool H3.000 W8.839
G1 X10.295 Y158.476 E0.0012
; tool H3.000 W8.843
G1 X10.238 Y158.501 E0.0014
; tool H3.000 W8.843
G1 X10.183 Y158.529 E0.0016
; tool H3.000 W8.841
G1 X10.132 Y158.565 E0.0018
; tool H3.000 W8.840
G1 X10.085 Y158.606 E0.0020
; tool H3.000 W8.840
G1 X10.044 Y158.653 E0.0023
; tool H3.000 W8.843
G1 X10.011 Y158.705 E0.0025
; tool H3.000 W8.842
G1 X9.977 Y158.758 E0.0027
; tool H3.000 W8.839
G1 X9.954 Y158.815 E0.0029
; tool H3.000 W8.841
G1 X9.938 Y158.875 E0.0031
; tool H3.000 W8.842
G1 X9.928 Y158.937 E0.0034
; tool H3.000 W8.840
G1 X9.922 Y158.999 E0.0036
; tool H3.000 W8.840
G1 X9.928 Y159.061 E0.0038
; tool H3.000 W8.842
G1 X9.938 Y159.122 E0.0040
; tool H3.000 W8.840
G1 X9.954 Y159.182 E0.0042
; tool H3.000 W8.839
G1 X9.977 Y159.240 E0.0045
; tool H3.000 W8.842
G1 X10.010 Y159.293 E0.0047
; tool H3.000 W8.841
G1 X10.043 Y159.346 E0.0049
; tool H3.000 W8.839
G1 X10.086 Y159.391 E0.0051
; tool H3.000 W8.842
G1 X10.133 Y159.432 E0.0054
; tool H3.000 W8.841
G1 X10.182 Y159.469 E0.0056
; tool H3.000 W8.841
G1 X10.238 Y159.497 E0.0058
; tool H3.000 W8.843
G1 X10.295 Y159.522 E0.0060
; tool H3.000 W8.839
G1 X10.354 Y159.542 E0.0062
; tool H3.000 W8.836
G1 X10.415 Y159.552 E0.0065
; tool H3.000 W9.394
G1 X10.617 Y159.000 E0.0087
; tool H3.000 W9.951
G1 X12.407 Y158.999 E0.0158
; tool H3.000 W9.950
G1 X33.624 Y158.999 E0.1007
; tool H3.000 W9.950
G1 X35.455 Y158.999 E0.1080
; tool H3.000 W9.950
G1 X35.943 Y158.983 E0.1099
; tool H3.000 W9.950
G1 X36.331 Y158.938 E0.1115
G1 X36.715 Y158.861 E0.1131
; tool H3.000 W9.950
G1 X37.090 Y158.755 E0.1146
G1 X37.457 Y158.620 E0.1162
; tool H3.000 W9.950
G1 X37.812 Y158.456 E0.1178
; tool H3.000 W9.950
G1 X38.152 Y158.266 E0.1193
G1 X38.477 Y158.049 E0.1209
G1 X38.784 Y157.807 E0.1224
G1 X39.071 Y157.542 E0.1240
G1 X39.336 Y157.255 E0.1256
G1 X39.578 Y156.948 E0.1271
; tool H3.000 W9.950
G1 X39.795 Y156.623 E0.1287
G1 X39.986 Y156.282 E0.1303
; tool H3.000 W9.950
G1 X40.149 Y155.927 E0.1318
; tool H3.000 W9.950
G1 X40.285 Y155.561 E0.1334
G1 X40.391 Y155.185 E0.1349
; tool H3.000 W9.950
